images/icon/group3.svg

<svg width="45" height="42" viewBox="0 0 45 42" fill="none" xmlns="http://www.w3.org/2000/svg">
<path d="M7.40622 40.5362C7.42213 40.5366 7.4378 40.5397 7.45231 40.5454C7.46683 40.5511 7.47989 40.5593 7.49074 40.5694L7.70885 40.7779C7.53955 40.9466 7.33029 41.0816 7.0954 41.1736C6.82033 41.2739 6.52388 41.3224 6.22565 41.3157C5.94542 41.3207 5.66699 41.2756 5.40771 41.183C5.17383 41.0981 4.9637 40.9704 4.79153 40.8087C4.61582 40.641 4.48048 40.4444 4.39347 40.2306C4.29818 39.9923 4.25113 39.7414 4.25442 39.489C4.25055 39.2351 4.30141 38.9828 4.40437 38.7451C4.49962 38.5299 4.64329 38.3334 4.82698 38.167C5.01315 38.0039 5.23586 37.8757 5.48133 37.7903C5.74986 37.6998 6.03582 37.6548 6.32381 37.6576C6.59132 37.652 6.85741 37.6931 7.1063 37.7785C7.32224 37.8599 7.52052 37.9729 7.6925 38.1125L7.50982 38.3352C7.4972 38.3509 7.48152 38.3645 7.46347 38.3755C7.44192 38.3883 7.41587 38.3942 7.38986 38.3921C7.36156 38.3904 7.33428 38.3822 7.31079 38.3684L7.21264 38.3092L7.07631 38.2333C7.01746 38.2052 6.95643 38.1807 6.89364 38.1599C6.81277 38.1347 6.72983 38.1149 6.64553 38.1007C6.53854 38.0835 6.42986 38.0756 6.32108 38.077C6.1137 38.0747 5.9079 38.1085 5.7158 38.1765C5.53666 38.2394 5.37495 38.3347 5.2414 38.4561C5.10545 38.5851 5.00068 38.7366 4.93331 38.9015C4.85652 39.0901 4.81868 39.289 4.82152 39.489C4.81825 39.6922 4.85609 39.8943 4.93331 40.0861C4.99984 40.2496 5.10266 40.4001 5.23595 40.5291C5.36082 40.6494 5.51561 40.7434 5.68854 40.804C5.86651 40.8681 6.05754 40.9003 6.25019 40.8987C6.36148 40.9002 6.47272 40.8939 6.58282 40.8798C6.76261 40.8607 6.93507 40.8064 7.08722 40.721C7.16353 40.6773 7.23557 40.6282 7.30261 40.5742C7.33064 40.5509 7.3675 40.5374 7.40622 40.5362Z" fill="#AFB1B8"/>
<path d="M13.7043 39.4886C13.7077 39.74 13.6578 39.9897 13.5571 40.2254C13.4682 40.4392 13.3283 40.6341 13.1464 40.7975C12.9645 40.9608 12.7449 41.0888 12.502 41.173C11.9682 41.3499 11.3781 41.3499 10.8443 41.173C10.6029 41.0875 10.3847 40.9592 10.2036 40.7963C10.0218 40.63 9.88083 40.4334 9.78915 40.2183C9.59274 39.7411 9.59274 39.2195 9.78915 38.7424C9.88216 38.5272 10.023 38.3299 10.2036 38.162C10.3862 38.0042 10.6043 37.8808 10.8443 37.7995C11.3774 37.6194 11.9688 37.6194 12.502 37.7995C12.7442 37.885 12.9633 38.0132 13.1454 38.1762C13.3249 38.3408 13.4648 38.5349 13.5571 38.7471C13.6581 38.9843 13.708 39.2357 13.7043 39.4886ZM13.1318 39.4886C13.1361 39.2875 13.101 39.0873 13.0282 38.8964C12.9671 38.7328 12.8677 38.582 12.7364 38.4533C12.6086 38.3316 12.4512 38.2361 12.2757 38.1738C11.8878 38.0443 11.4584 38.0443 11.0706 38.1738C10.895 38.2361 10.7376 38.3316 10.6098 38.4533C10.4767 38.5812 10.3763 38.7322 10.3154 38.8964C10.1766 39.282 10.1766 39.6952 10.3154 40.0809C10.3769 40.2448 10.4772 40.3957 10.6098 40.5239C10.7378 40.6449 10.8952 40.7396 11.0706 40.8011C11.4591 40.9273 11.8871 40.9273 12.2757 40.8011C12.451 40.7396 12.6084 40.6449 12.7364 40.5239C12.8672 40.3949 12.9664 40.2442 13.0282 40.0809C13.1013 39.8901 13.1364 39.6897 13.1318 39.4886Z" fill="#AFB1B8"/>
<path d="M18.0013 40.1095L18.0585 40.2422C18.0803 40.1948 18.0994 40.1522 18.1212 40.1095C18.142 40.065 18.1657 40.0215 18.1921 39.9792L19.5853 37.7787C19.6126 37.7408 19.6371 37.7171 19.6644 37.71C19.7015 37.7002 19.7402 37.6961 19.7789 37.6981H20.1906V41.2773H19.7026V38.6456C19.7026 38.6125 19.7026 38.5746 19.7026 38.5343C19.6999 38.4933 19.6999 38.4521 19.7026 38.4111L18.3012 40.6425C18.2834 40.6759 18.2549 40.7042 18.2191 40.7239C18.1833 40.7437 18.1418 40.754 18.0994 40.7538H18.0203C17.9779 40.7543 17.9362 40.7441 17.9003 40.7243C17.8645 40.7045 17.8361 40.6761 17.8186 40.6425L16.3763 38.3969C16.3763 38.4395 16.3763 38.4822 16.3763 38.5248C16.3763 38.5675 16.3763 38.6054 16.3763 38.6385V41.2702H15.9046V37.6981H16.3163C16.355 37.6961 16.3937 37.7002 16.4308 37.71C16.4646 37.7245 16.4916 37.7488 16.5072 37.7787L17.9304 39.9816C17.9583 40.0223 17.9821 40.0651 18.0013 40.1095Z" fill="#AFB1B8"/>
<path d="M23.2443 39.9317V41.2724H22.699V37.698H23.915C24.1445 37.6942 24.3734 37.7205 24.5939 37.7762C24.7704 37.8196 24.934 37.8956 25.0737 37.9988C25.1948 38.0956 25.2882 38.2157 25.3464 38.3494C25.4107 38.4952 25.4422 38.6504 25.4391 38.8065C25.4415 38.9633 25.4072 39.1188 25.3382 39.2637C25.2726 39.4008 25.1719 39.5232 25.0437 39.6214C24.9038 39.729 24.7394 39.8097 24.5612 39.8583C24.3489 39.9172 24.1269 39.9452 23.9041 39.9412L23.2443 39.9317ZM23.2443 39.548H23.9041C24.0474 39.5496 24.1901 39.5312 24.3267 39.4935C24.4394 39.4605 24.5432 39.4082 24.632 39.3395C24.714 39.274 24.7774 39.1929 24.8174 39.1026C24.8621 39.0071 24.8843 38.9049 24.8829 38.8018C24.8892 38.7024 24.8706 38.6031 24.8282 38.5106C24.7858 38.4182 24.7207 38.3349 24.6375 38.2665C24.4292 38.1252 24.1676 38.0567 23.9041 38.0746H23.2443V39.548Z" fill="#AFB1B8"/>
<path d="M30.573 41.2772H30.1422C30.099 41.2786 30.0566 41.2669 30.0223 41.244C29.9913 41.2217 29.967 41.1933 29.9514 41.1611L29.5806 40.2964H27.7184L27.334 41.1611C27.3198 41.1927 27.2963 41.2205 27.2658 41.2417C27.2312 41.2659 27.1876 41.2785 27.1431 41.2772H26.7123L28.3482 37.6976H28.9153L30.573 41.2772ZM27.8738 39.9482H29.4115L28.7626 38.4912C28.713 38.3817 28.6721 38.2693 28.64 38.1548L28.5772 38.342C28.5582 38.3989 28.5363 38.451 28.5173 38.4936L27.8738 39.9482Z" fill="#AFB1B8"/>
<path d="M32.9287 37.7143C32.9613 37.7298 32.9893 37.7517 33.0105 37.7783L35.3962 40.4765C35.3962 40.4339 35.3962 40.3912 35.3962 40.351C35.3962 40.3107 35.3962 40.2704 35.3962 40.2325V37.6977H35.8842V41.2772H35.6116C35.5728 41.2783 35.5344 41.2709 35.4998 41.2559C35.4661 41.2388 35.4365 41.2163 35.4125 41.1896L33.0296 38.4937C33.0322 38.5347 33.0322 38.5758 33.0296 38.6169C33.0296 38.6571 33.0296 38.6927 33.0296 38.7258V41.2772H32.5416V37.6977H32.8306C32.8643 37.6969 32.8978 37.7025 32.9287 37.7143Z" fill="#AFB1B8"/>
<path d="M39.903 39.8536V41.275H39.3577V39.8536L37.85 37.6979H38.338C38.3801 37.6957 38.4216 37.7066 38.4553 37.7287C38.4849 37.7516 38.5098 37.7789 38.5289 37.8092L39.4722 39.1998C39.5104 39.259 39.5431 39.3135 39.5704 39.3656C39.5977 39.4177 39.6195 39.4675 39.6386 39.5172L39.7094 39.3633C39.7359 39.3069 39.7669 39.2523 39.8021 39.1998L40.7319 37.7997C40.7514 37.7718 40.7753 37.7463 40.8028 37.7239C40.8351 37.6994 40.8771 37.6866 40.92 37.6884H41.4135L39.903 39.8536Z" fill="#AFB1B8"/>
<path d="M17.7313 31.691C17.9685 31.717 18.2085 31.7383 18.4511 31.7573C22.13 30.3274 25.2421 27.9871 27.3986 25.029C29.5551 22.0708 30.6602 18.6261 30.5758 15.1252L26.5215 11.6027C27.3458 15.33 26.9602 19.183 25.4078 22.7308C23.8554 26.2785 21.1975 29.3809 17.7313 31.691Z" fill="#AFB1B8"/>
<path d="M16.2836 31.5271L16.3927 31.546C20.0966 29.2442 22.9205 26.0299 24.4992 22.3187C26.0779 18.6075 26.3388 14.5702 25.2483 10.7287L19.4736 5.71155C21.8093 9.83557 22.7495 14.451 22.1847 19.021C21.62 23.591 19.5737 27.9278 16.2836 31.5271Z" fill="#AFB1B8"/>
<path d="M35.8679 19.2614C34.8868 23.1079 32.504 26.5771 29.0735 29.1537C28.0716 29.9103 26.9909 30.5844 25.8453 31.1672C28.6388 30.4538 31.2064 29.1926 33.3502 27.4808C35.4939 25.7689 37.1566 23.6522 38.2099 21.2938L35.8679 19.2614Z" fill="#AFB1B8"/>
<path d="M34.949 18.6949L31.6146 15.7977C31.5508 19.1008 30.47 22.3288 28.4845 25.1462C26.499 27.9636 23.6813 30.2675 20.3242 31.8185H20.3406C21.0887 31.8183 21.8362 31.7795 22.579 31.7025C25.7164 30.5898 28.488 28.8197 30.6464 26.55C32.8049 24.2803 34.283 21.5817 34.949 18.6949Z" fill="#AFB1B8"/>
<path d="M16.7662 3.59572L12.7883 0.134766C9.23216 1.32872 6.17374 3.42765 4.01331 6.15684C1.85288 8.88603 0.691089 12.1183 0.679993 15.4307H0.679993C0.693321 19.0908 2.1112 22.6425 4.70923 25.5236C7.30725 28.4048 10.937 30.4508 15.024 31.3378C18.6724 27.4758 20.8085 22.7036 21.1218 17.7146C21.4351 12.7256 19.9094 7.77976 16.7662 3.59572Z" fill="#AFB1B8"/>
<path d="M44.14 18.1621C44.1256 13.8197 42.1338 9.6586 38.5996 6.58799C35.0655 3.51738 30.2763 1.7868 25.2783 1.7743C22.9687 1.77222 20.6788 2.14251 18.5248 2.86635L42.8804 24.0275C43.7143 22.1569 44.1414 20.1681 44.14 18.1621Z" fill="#AFB1B8"/>
</svg>

<svg width="45" height="42" fill="none" xmlns="http://www.w3.org/2000/svg"><path d="M7.406 40.536c.016 0 .032.004.046.01a.122.122 0 01.039.023l.218.209c-.17.169-.379.304-.614.396-.275.1-.571.148-.87.142-.28.005-.558-.04-.817-.133a1.792 1.792 0 01-.616-.374 1.674 1.674 0 01-.399-.578 1.926 1.926 0 01-.139-.742 1.724 1.724 0 01.573-1.322c.186-.163.409-.291.654-.377.269-.09.555-.135.843-.132a2.27 2.27 0 01.782.12c.216.082.415.195.587.334l-.183.223a.178.178 0 01-.047.04.125.125 0 01-.073.017.178.178 0 01-.08-.024l-.097-.059-.137-.076a1.569 1.569 0 00-.43-.132 1.892 1.892 0 00-.325-.024 1.76 1.76 0 00-.605.1c-.18.062-.341.158-.475.28-.136.128-.24.28-.308.444a1.499 1.499 0 00-.111.588 1.53 1.53 0 00.111.597 1.3 1.3 0 00.303.443c.125.12.28.214.453.275.178.064.369.096.561.095.111.001.223-.005.333-.02a1.316 1.316 0 00.72-.305.17.17 0 01.103-.038zM13.704 39.489a1.81 1.81 0 01-.147.736 1.595 1.595 0 01-.41.572 1.89 1.89 0 01-.645.376 2.655 2.655 0 01-1.658 0 1.91 1.91 0 01-.64-.377 1.677 1.677 0 01-.415-.578 1.922 1.922 0 010-1.476c.093-.215.234-.412.415-.58.182-.158.4-.281.64-.362a2.61 2.61 0 011.658 0c.242.085.461.213.643.376.18.165.32.359.412.571.101.237.151.489.147.742zm-.572 0a1.565 1.565 0 00-.104-.593 1.22 1.22 0 00-.752-.722 1.918 1.918 0 00-1.205 0 1.295 1.295 0 00-.461.28 1.19 1.19 0 00-.295.442 1.737 1.737 0 000 1.185 1.209 1.209 0 00.756.72c.388.126.816.126 1.205 0 .175-.061.332-.156.46-.277.131-.13.23-.28.292-.443.073-.19.108-.391.104-.592zM18.001 40.11l.057.132c.022-.047.041-.09.063-.133a1.23 1.23 0 01.071-.13l1.393-2.2c.028-.038.052-.062.08-.069a.373.373 0 01.114-.012h.412v3.58h-.488v-2.632-.112a.938.938 0 010-.123L18.3 40.642a.203.203 0 01-.082.082.246.246 0 01-.12.03h-.079a.243.243 0 01-.12-.03.2.2 0 01-.081-.081l-1.443-2.246V41.27h-.471v-3.572h.411a.373.373 0 01.115.012c.034.014.06.039.076.069l1.423 2.203a.76.76 0 01.071.127zM23.244 39.932v1.34H22.7v-3.574h1.216a2.6 2.6 0 01.679.078c.176.044.34.12.48.223a.923.923 0 01.272.35c.065.146.096.301.093.458a.993.993 0 01-.395.815c-.14.107-.305.188-.483.236a2.307 2.307 0 01-.657.083l-.66-.01zm0-.384h.66c.143.002.286-.017.423-.055a.922.922 0 00.305-.154.686.686 0 00.25-.538.605.605 0 00-.054-.29.69.69 0 00-.19-.245 1.172 1.172 0 00-.734-.191h-.66v1.473zM30.573 41.277h-.43a.205.205 0 01-.12-.033.222.222 0 01-.072-.083l-.37-.865h-1.863l-.384.865a.205.205 0 01-.19.116h-.432l1.636-3.58h.567l1.658 3.58zm-2.7-1.329h1.538l-.648-1.457c-.05-.11-.09-.222-.123-.336l-.063.187a1.68 1.68 0 01-.06.152l-.643 1.454zM32.929 37.714c.032.016.06.038.081.064l2.386 2.699v-.126-2.653h.488v3.58h-.272a.263.263 0 01-.112-.022.299.299 0 01-.087-.066l-2.383-2.696a.974.974 0 010 .123v2.66h-.488v-3.58h.289c.033 0 .067.005.098.017zM39.903 39.854v1.421h-.545v-1.421l-1.508-2.156h.488a.196.196 0 01.117.03c.03.024.055.05.074.081l.943 1.39c.038.06.071.114.098.167.028.052.05.102.069.151l.07-.154c.027-.056.058-.11.093-.163l.93-1.4a.376.376 0 01.07-.076.182.182 0 01.118-.036h.493l-1.51 2.166zM17.731 31.691c.237.026.477.047.72.066 3.679-1.43 6.791-3.77 8.948-6.728 2.156-2.958 3.261-6.403 3.177-9.904l-4.055-3.522c.825 3.727.44 7.58-1.113 11.128-1.553 3.547-4.21 6.65-7.677 8.96z" fill="#AFB1B8"/><path d="M16.284 31.527l.109.019c3.704-2.302 6.527-5.516 8.106-9.227 1.579-3.711 1.84-7.749.75-11.59l-5.775-5.017c2.335 4.124 3.276 8.739 2.71 13.309-.564 4.57-2.61 8.907-5.9 12.506zM35.868 19.261c-.981 3.847-3.364 7.316-6.795 9.893a21.629 21.629 0 01-3.228 2.013c2.794-.713 5.361-1.974 7.505-3.686s3.807-3.829 4.86-6.187l-2.342-2.033z" fill="#AFB1B8"/><path d="M34.949 18.695l-3.334-2.897c-.064 3.303-1.145 6.53-3.13 9.348-1.986 2.818-4.804 5.121-8.16 6.672h.016c.748 0 1.495-.039 2.238-.116 3.137-1.112 5.909-2.882 8.067-5.152 2.159-2.27 3.637-4.968 4.303-7.855zM16.766 3.596L12.788.135C9.232 1.329 6.174 3.428 4.013 6.157 1.853 8.886.691 12.118.68 15.43c.013 3.66 1.431 7.211 4.03 10.093 2.597 2.88 6.227 4.927 10.314 5.814 3.648-3.862 5.784-8.634 6.098-13.623.313-4.99-1.213-9.935-4.356-14.12zM44.14 18.162c-.014-4.342-2.006-8.503-5.54-11.574-3.535-3.07-8.324-4.801-13.322-4.814a21.18 21.18 0 00-6.753 1.092L42.88 24.028a14.353 14.353 0 001.26-5.866z" fill="#AFB1B8"/></svg>
